!!!OTL: S IST GEWISS UND KEIN GEDICHT
!!!ARE: Europa, Mitteleuropa, Deutschland
!!!SCT: F0087
!!!YEM: Copyright 1995, estate of Helmut Schaffrath.
**kern
*ICvox
*Ivox
*M3/4
*k[f#]
*G:
{8.d
16d
=1
4.g
8g
8f#
8g
=2
4a
4r}
{8g
8b
=3
4dd
4b
8a
8b
=4
4g
4r}
{8g
8b
=5
4dd
4dd
8a
8cc
=6
8b
8a
4g}
{8g
8b
=7
4dd
4dd
8a
8cc
=8
8b
8a
4g}
{8.d
16d
=9
4.g
8g
8f#
8g
=10
4a
8r}
{8d
8g
8b
=11
4dd
4b
8a
8b
=12
4g
4r}
==
!!!AGN: Moral - Lied, Misstrauen gegen Frauen
!!!ONB: ESAC (Essen Associative Code) Database: FINK
!!!AMT: simple triple
!!!AIN: vox
!!!EED: Helmut Schaffrath
!!!EEV: 1.0
*-
